X:1
T:Slumber, Sweetly Slumber
T:Slumber, Sweetly Slumber
T:Adam Geibel
T:Lizzie Douglas Foulks DeArmond, 1901
T:Public Domain Courtesy of the Cyber Hymnal™
C:Adam Geibel
Z:Public Domain
Z:Courtesy of the Cyber Hymnal™
%%score ( 1 2 ) ( 3 4 )
L:1/8
Q:1/4=100
M:6/8
K:G
V:1 treble 
V:2 treble 
V:3 bass 
V:4 bass 
V:1
 [B,DB]2 [B,DB] [CDB]2 [CDA] | [B,DA]3 [B,DG]2 z | [DBd]2 [DBd] [DBd]2 [DAc] | [DGB]3- [DGB]2 z | %4
w: 1.~Cra- dled in a|man- ger,|On the fra- grant|hay, *|
w: 2.~Hap- py be Thy|slum- bers,|While sweet lull- a-|bies, *|
w: 3.~Sleep, dear ba- by|Je- sus,|Love shall make the|night *|
 [E^Ge]2 [EGe] [EGe]2 [EGd] | [EAd]3 [EAc]2 z | [^CGB]2 [CGA] [CGA]2 [CE] | %7
w: Wrapped in peace- ful|slum- ber,|Ba- by Je- sus|
w: Sung by shin- ing|an- gels,|Ech- o through the|
w: Full of joy and|glad- ness,|Bright with Heav- en’s|
 A3- ([CE] !fermata![CDA]2) z ||"^Refrain" B2 B (A>Bc) | [GB]3 ([Fd]2 D) | (B2 B) (A>Bc) | %11
w: lay. * *||||
w: skies. Slum- *|* * ber, * *|slum- ber, *|slum- * ber * *|
w: light. * *||||
 ([G-B]3 [Gd]2) z | [=FG]2 [FG] (G>B)[Fd] | [Ee]3 [EA]2 [EB] | [Ed]2 [Ec] [FB]2 [FA] | %15
w: ||||
w: on; *|Slum- ber, sweet- * ly|slum- ber, Thou|Thought of God so|
w: ||||
 G2 z (A>B)[Fc] | [GB]2 z (A>B)[Fc] | [Dd]2 z [=FG]3 | [EG]3 [_EG]3 | [DB]3- !fermata![DB]2 z |] %20
w: |||||
w: dear; Slum- * ber|on, slum- * ber|on, Thou|ho- ly|Babe. *|
w: |||||
V:2
 x6 | x6 | x6 | x6 | x6 | x6 | x6 | [CF]2 x5 || D3 F3 | x6 | D3 F3 | x6 | x3 =F2 x | x6 | x6 | %15
 G2 F2 x2 | x3 F2 x | x6 | x6 | x6 |] %20
V:3
 G,,2 D, F,2 D, | (G,,2 D,) G,2 D, | D,,2 D, [F,C]2 F, | (G,,2 D, [G,B,]2 D,) | E,,2 E, [B,D]2 E, | %5
 (A,,2 E,) [A,C]2 E, | A,,2 E, A,2 E, | ([D,,D,]2 [D,G,] !fermata![D,F,]2) z x || %8
 [G,,G,]3 (C2 A,) | [G,B,]3 [D,A,]2 z | [G,,G,]3 (C2 A,) | [G,B,]3- [G,B,]2 z | %12
 [G,B,]2 [G,B,] [G,B,]2 [G,,G,] | [C,G,]3 [C,A,]2 [B,,^G,] | [A,,A,]2 [C,A,] [D,D]2 [D,C] | %15
 [G,B,]2 z [D,C]2 [D,A,] | [G,B,]2 z [D,C]2 [D,A,] | [B,,G,]2 z [B,,D]3 | [C,C]3 [C,A,]3 | %19
 [G,,B,]3- !fermata![G,,B,]2 z |] %20
V:4
 x6 | x6 | x6 | x6 | x6 | x6 | x6 | x7 || x3 D,3 | x6 | x3 D,3 | x6 | x6 | x6 | x6 | x6 | x6 | x6 | %18
 x6 | x6 |] %20

